.local/share/icons/Papirus/22x22/panel/protonvpngui-disconnected.svg

<svg xmlns="http://www.w3.org/2000/svg" width="22" height="22" version="1.1">
 <defs>
  <style id="current-color-scheme" type="text/css">
   .ColorScheme-Text { color:#dfdfdf; } .ColorScheme-Highlight { color:#4285f4; } .ColorScheme-NeutralText { color:#ff9800; } .ColorScheme-PositiveText { color:#4caf50; } .ColorScheme-NegativeText { color:#f44336; }
  </style>
 </defs>
 <path style="opacity:0.35;fill:currentColor" class="ColorScheme-Text" d="m 4.7320278,4.0005407 c -0.041776,-9.826e-4 -0.082228,2.357e-4 -0.1230469,0.00195 -1.2245812,0.051968 -2.0369213,1.3188941 -1.3691406,2.3691407 l 0.064453,0.064453 6.7070316,0.7382813 A 5,5 0 0 1 9.9996059,7.0005407 5,5 0 0 1 10.610934,4.6314001 L 4.8589809,4.0083532 c -0.042495,-0.00389 -0.085177,-0.00683 -0.1269531,-0.00781 z m -0.84375,3.505859 4.6601562,8.1328133 c 0.5841276,-0.09439 0.6931895,-0.245292 1.0546875,-0.748047 L 12.122653,11.076713 A 5,5 0 0 1 10.155856,8.1958537 Z M 12.991793,11.57476 10.42734,15.459525 9.845309,16.268119 c -0.259018,0.311185 -0.7783926,0.310925 -0.9726562,-0.0625 l 0.5839843,0.996094 c 0.1295088,0.18671 0.2591631,0.311073 0.3886719,0.435547 0.7123,0.560131 1.878147,0.498269 2.460938,-0.373047 l 3.664062,-5.371094 a 5,5 0 0 1 -0.970703,0.107422 5,5 0 0 1 -2.007813,-0.425781 z"/>
 <path style="fill:currentColor" class="ColorScheme-Text" d="m 14.939059,2.9985876 c -0.05777,9.358e-4 -0.115791,0.00433 -0.173828,0.00781 -0.265312,0.01593 -0.534044,0.059389 -0.800781,0.1308594 -2.1339,0.5718 -3.399824,2.7645374 -2.828125,4.8984377 0.57174,2.1337993 2.764537,3.3999243 4.898437,2.8281243 2.1339,-0.5718 3.399825,-2.7645373 2.828125,-4.898437 C 18.378249,4.1566555 16.730062,2.9695772 14.939059,2.9985876 Z m -1.439453,2.0019531 a 0.5,0.5 0 0 1 0.353516,0.1464844 l 1.146484,1.1464844 1.146484,-1.1464844 a 0.5,0.5 0 0 1 0.707032,0 0.5,0.5 0 0 1 0,0.7070312 l -1.146485,1.1464844 1.146485,1.146484 a 0.5,0.5 0 0 1 0,0.707032 0.5,0.5 0 0 1 -0.707032,0 l -1.146484,-1.146485 -1.146484,1.146485 a 0.5,0.5 0 0 1 -0.707032,0 0.5,0.5 0 0 1 0,-0.707032 L 14.292575,7.0005407 13.14609,5.8540563 a 0.5,0.5 0 0 1 0,-0.7070312 0.5,0.5 0 0 1 0.353516,-0.1464844 z"/>
</svg>

<svg xmlns="http://www.w3.org/2000/svg" width="22" height="22" version="1.1">
 <defs>
  <style id="current-color-scheme" type="text/css">
   .ColorScheme-Text { color:#dfdfdf; } .ColorScheme-Highlight { color:#4285f4; } .ColorScheme-NeutralText { color:#ff9800; } .ColorScheme-PositiveText { color:#4caf50; } .ColorScheme-NegativeText { color:#f44336; }
  </style>
 </defs>
 <path style="fill:currentColor;opacity:0.35" class="ColorScheme-Text" d="M 10.119141,5.9414062 6.6582031,6.8847656 C 6.2871013,6.3323233 5.6655138,6.0006635 5,6 3.8954305,6 3,6.8954305 3,8 3,9.1045695 3.8954305,10 5,10 5.2235436,9.9991803 5.4453681,9.9608892 5.65625,9.8867188 l 4.675781,6.0117192 C 10.11585,16.225179 10.000395,16.608217 10,17 c 0,1.104569 0.895431,2 2,2 1.104569,0 2,-0.895431 2,-2 -0.0014,-0.625737 -0.295526,-1.214767 -0.794922,-1.591797 l 1.152344,-3.455078 C 13.929071,11.896216 13.512161,11.78483 13.117188,11.623047 L 11.992188,15 c -0.220919,0.0017 -0.440032,0.03997 -0.648438,0.113281 L 6.6679688,9.1015625 C 6.8610236,8.808387 6.9735155,8.4695641 6.9941406,8.1191406 L 10.009766,7.296875 c -0.02702,-0.4607456 0.0128,-0.9162099 0.109375,-1.3554688 z"/>
 <path style="fill:currentColor" class="ColorScheme-Text" d="M 14.939453 2.9980469 C 14.881679 2.9989827 14.823662 3.0023753 14.765625 3.0058594 C 14.500313 3.0217894 14.231581 3.0652486 13.964844 3.1367188 C 11.830944 3.7085188 10.56502 5.9012562 11.136719 8.0351562 C 11.708459 10.168956 13.901256 11.435081 16.035156 10.863281 C 18.169056 10.291481 19.434981 8.0987438 18.863281 5.9648438 C 18.378643 4.1561148 16.730456 2.9690365 14.939453 2.9980469 z M 13.5 5 A 0.5 0.5 0 0 1 13.853516 5.1464844 L 15 6.2929688 L 16.146484 5.1464844 A 0.5 0.5 0 0 1 16.853516 5.1464844 A 0.5 0.5 0 0 1 16.853516 5.8535156 L 15.707031 7 L 16.853516 8.1464844 A 0.5 0.5 0 0 1 16.853516 8.8535156 A 0.5 0.5 0 0 1 16.146484 8.8535156 L 15 7.7070312 L 13.853516 8.8535156 A 0.5 0.5 0 0 1 13.146484 8.8535156 A 0.5 0.5 0 0 1 13.146484 8.1464844 L 14.292969 7 L 13.146484 5.8535156 A 0.5 0.5 0 0 1 13.146484 5.1464844 A 0.5 0.5 0 0 1 13.5 5 z"/>
</svg>
